app/images/icons/git.svg

<?xml version="1.0" ?><svg enable-background="new 0 0 24 24" id="Layer_1" version="1.1" viewBox="0 0 24 24" xml:space="preserve" xmlns="http://www.w3.org/2000/svg" xmlns:xlink="http://www.w3.org/1999/xlink"><g><path d="M23.5615234,10.9320221c-0.0009766,0-0.0009766-0.0004883-0.0009766-0.0004883L13.0615234,0.4256744   c-0.5664063-0.567749-1.5576172-0.5672607-2.1220703-0.0004883L0.4384766,10.9320221C0.15625,11.2158966,0,11.5926056,0,11.9927521   c0,0.4006348,0.15625,0.777771,0.4394531,1.0611572l10.4990234,10.5058594   C11.2216797,23.8436432,11.5986328,24.0000153,12,24.0000153s0.7783203-0.1563721,1.0605469-0.4397583l10.5-10.5063477   C23.84375,12.7705231,24,12.3933868,24,11.9927521C24,11.5926056,23.84375,11.2158966,23.5615234,10.9320221z" fill="#EF473B"/><path d="M23.6809692,12.6898956l-10.609375,10.6157837   C12.786438,23.5919952,12.4055176,23.7500153,12,23.7500153s-0.786438-0.15802-1.0725708-0.4448242L0.3190308,12.6898956   c-0.1239624-0.1240845-0.218689-0.2683716-0.2921143-0.4222412c0.0545654,0.2959595,0.1953125,0.5689087,0.4125366,0.7862549   l10.4990234,10.5058594C11.2216797,23.8436432,11.5986328,24.0000153,12,24.0000153s0.7783203-0.1563721,1.0605469-0.4397583   l10.5-10.5063477c0.2172241-0.2173462,0.3580322-0.4902954,0.4125977-0.7862549   C23.8997192,12.421524,23.8049316,12.5658112,23.6809692,12.6898956z" fill="#010101" opacity="0.1"/><path d="M17,10.0000153c-0.3748779,0-0.7219849,0.1100464-1.0222168,0.2902832l-2.2680664-2.2680664   C13.8898926,7.7220612,14,7.3749542,14,7.0000153c0-1.1030273-0.8974609-2-2-2   c-0.369873,0-0.7122803,0.1077881-1.0098267,0.2835693L8.536438,2.8295441L7.8295898,3.5367584l2.4536743,2.4539795   C10.1077271,6.2881012,10,6.6303253,10,7.0000153c0,0.9293213,0.6400146,1.7053833,1.5,1.9289551v6.1420898   C10.6400146,15.294632,10,16.070694,10,17.0000153c0,1.1030273,0.8974609,2,2,2s2-0.8969727,2-2   c0-0.9293213-0.6400146-1.7053833-1.5-1.9289551V8.9289703c0.1767578-0.0459595,0.3425293-0.1158447,0.4968872-0.2055054   l2.2796631,2.2796631C15.1053467,11.2978058,15,11.6353302,15,12.0000153c0,1.1030273,0.8974609,2,2,2s2-0.8969727,2-2   S18.1025391,10.0000153,17,10.0000153z" fill="#FFFFFF"/><path d="M0.4384766,11.1820221L10.9394531,0.6751862   c0.5644531-0.5667725,1.5556641-0.5672607,2.1220703,0.0004883l10.4990234,10.5058594c0,0,0,0.0004883,0.0009766,0.0004883   c0.2523193,0.2537842,0.3969727,0.583252,0.4262695,0.935791C23.991272,12.075943,24,12.0352325,24,11.9927521   c0-0.4001465-0.15625-0.7768555-0.4384766-1.06073c-0.0009766,0-0.0009766-0.0004883-0.0009766-0.0004883L13.0615234,0.4256744   c-0.5664063-0.567749-1.5576172-0.5672607-2.1220703-0.0004883L0.4384766,10.9320221C0.15625,11.2158966,0,11.5926056,0,11.9927521   c0,0.0424194,0.008728,0.0831299,0.012207,0.124939C0.0415649,11.765152,0.1862183,11.4357452,0.4384766,11.1820221z" fill="#FFFFFF" opacity="0.2"/><linearGradient gradientUnits="userSpaceOnUse" id="SVGID_1_" x1="9.6692657" x2="18.3065948" y1="9.6760864" y2="18.3134155"><stop offset="0" style="stop-color:#010101;stop-opacity:0.1"/><stop offset="1" style="stop-color:#010101;stop-opacity:0"/></linearGradient><path d="M18.5488281,10.7503815C18.8265381,11.0938263,19,11.5248566,19,12.0000153   c0,1.1030273-0.8974609,2-2,2s-2-0.8969727-2-2c0-0.3646851,0.1053467-0.7022095,0.2765503-0.9968872L12.9968872,8.723465   C12.8425293,8.8131256,12.6767578,8.8830109,12.5,8.9289703v6.1420898c0.8599854,0.2235718,1.5,0.9996338,1.5,1.9289551   c0,1.1030273-0.8974609,2-2,2c-0.5114746,0-0.9738159-0.1986694-1.3278809-0.5157471l3.7318115,3.7318115l7.8029175-7.8076782   L18.5488281,10.7503815z M13.7097168,8.0222321l2.2680664,2.2680664C16.2780151,10.1100616,16.6251221,10.0000153,17,10.0000153   c0.4750977,0,0.90625,0.1735229,1.2498169,0.451355l-4.6776733-4.6777344L13.5697021,5.77565   C13.835144,6.1150665,14,6.5366364,14,7.0000153C14,7.3749542,13.8898926,7.7220612,13.7097168,8.0222321z" fill="url(#SVGID_1_)"/><linearGradient gradientUnits="userSpaceOnUse" id="SVGID_2_" x1="2.0138185" x2="21.983366" y1="7.3399205" y2="16.6518726"><stop offset="0" style="stop-color:#FFFFFF;stop-opacity:0.2"/><stop offset="1" style="stop-color:#FFFFFF;stop-opacity:0"/></linearGradient><path d="M23.5615234,10.9320221c-0.0009766,0-0.0009766-0.0004883-0.0009766-0.0004883L13.0615234,0.4256744   c-0.5664063-0.567749-1.5576172-0.5672607-2.1220703-0.0004883L0.4384766,10.9320221C0.15625,11.2158966,0,11.5926056,0,11.9927521   c0,0.4006348,0.15625,0.777771,0.4394531,1.0611572l10.4990234,10.5058594   C11.2216797,23.8436432,11.5986328,24.0000153,12,24.0000153s0.7783203-0.1563721,1.0605469-0.4397583l10.5-10.5063477   C23.84375,12.7705231,24,12.3933868,24,11.9927521C24,11.5926056,23.84375,11.2158966,23.5615234,10.9320221z" fill="url(#SVGID_2_)"/></g><g/><g/><g/><g/><g/><g/><g/><g/><g/><g/><g/><g/><g/><g/><g/></svg>

<svg viewBox="0 0 24 24" xmlns="http://www.w3.org/2000/svg"><path d="M23.562 10.932h-.001L13.06.426c-.566-.568-1.557-.568-2.122 0L.44 10.931c-.283.284-.439.66-.439 1.06 0 .401.156.779.44 1.062L10.937 23.56c.284.284.66.44 1.062.44s.778-.156 1.06-.44l10.5-10.506c.284-.283.44-.66.44-1.061 0-.4-.156-.777-.438-1.061z" fill="#EF473B"/><path d="M23.681 12.69l-10.61 10.616c-.285.286-.665.444-1.071.444s-.786-.158-1.073-.445L.32 12.69a1.513 1.513 0 01-.292-.422c.054.296.195.569.412.786l10.5 10.506c.283.284.66.44 1.061.44s.778-.156 1.06-.44l10.5-10.506a1.49 1.49 0 00.413-.786 1.513 1.513 0 01-.292.422z" fill="#010101" opacity=".1"/><path d="M17 10c-.375 0-.722.11-1.022.29L13.71 8.022c.18-.3.29-.647.29-1.022 0-1.103-.897-2-2-2-.37 0-.712.108-1.01.284L8.536 2.83l-.706.707 2.453 2.454C10.108 6.288 10 6.63 10 7c0 .93.64 1.705 1.5 1.929v6.142c-.86.224-1.5 1-1.5 1.929 0 1.103.897 2 2 2s2-.897 2-2c0-.93-.64-1.705-1.5-1.929V8.93c.177-.046.343-.116.497-.206l2.28 2.28A1.976 1.976 0 0015 12c0 1.103.897 2 2 2s2-.897 2-2-.897-2-2-2z" fill="#FFF"/><path d="M.438 11.182L10.94.675c.565-.567 1.556-.567 2.123 0L23.56 11.183c.253.254.397.583.427.936.003-.042.012-.083.012-.125 0-.4-.156-.777-.438-1.061h-.001L13.06.426c-.566-.568-1.557-.568-2.122 0L.44 10.931c-.283.284-.439.66-.439 1.06 0 .043.009.084.012.126.03-.353.174-.682.426-.936z" fill="#FFF" opacity=".2"/><linearGradient gradientUnits="userSpaceOnUse" id="a" x1="9.669" x2="18.307" y1="9.676" y2="18.313"><stop offset="0" stop-color="#010101" stop-opacity=".1"/><stop offset="1" stop-color="#010101" stop-opacity="0"/></linearGradient><path d="M18.549 10.75c.278.344.451.775.451 1.25 0 1.103-.897 2-2 2s-2-.897-2-2c0-.365.105-.702.277-.997l-2.28-2.28c-.154.09-.32.16-.497.206v6.142c.86.224 1.5 1 1.5 1.929 0 1.103-.897 2-2 2-.511 0-.974-.199-1.328-.516l3.732 3.732 7.803-7.808-3.658-3.658zm-4.84-2.728l2.269 2.268c.3-.18.647-.29 1.022-.29.475 0 .906.174 1.25.451l-4.678-4.677-.002.002c.265.34.43.76.43 1.224 0 .375-.11.722-.29 1.022z" fill="url(#a)"/><linearGradient gradientUnits="userSpaceOnUse" id="b" x1="2.014" x2="21.983" y1="7.34" y2="16.652"><stop offset="0" stop-color="#fff" stop-opacity=".2"/><stop offset="1" stop-color="#fff" stop-opacity="0"/></linearGradient><path d="M23.562 10.932h-.001L13.06.426c-.566-.568-1.557-.568-2.122 0L.44 10.931c-.283.284-.439.66-.439 1.06 0 .401.156.779.44 1.062L10.937 23.56c.284.284.66.44 1.062.44s.778-.156 1.06-.44l10.5-10.506c.284-.283.44-.66.44-1.061 0-.4-.156-.777-.438-1.061z" fill="url(#b)"/></svg>
